storage/app/icons/phosphoricons/thin/picture-in-picture-thin.svg

<svg xmlns="http://www.w3.org/2000/svg" fill="currentColor" viewBox="0 0 256 256"><path d="M216 52H40a12 12 0 0 0-12 12v128a12 12 0 0 0 12 12h176a12 12 0 0 0 12-12V64a12 12 0 0 0-12-12M36 192V64a4 4 0 0 1 4-4h176a4 4 0 0 1 4 4v60h-84a4 4 0 0 0-4 4v68H40a4 4 0 0 1-4-4m180 4h-76v-64h80v60a4 4 0 0 1-4 4"/></svg>

<svg xmlns="http://www.w3.org/2000/svg" viewBox="0 0 256 256" fill="currentColor"><path d="M216,52H40A12,12,0,0,0,28,64V192a12,12,0,0,0,12,12H216a12,12,0,0,0,12-12V64A12,12,0,0,0,216,52ZM36,192V64a4,4,0,0,1,4-4H216a4,4,0,0,1,4,4v60H136a4,4,0,0,0-4,4v68H40A4,4,0,0,1,36,192Zm180,4H140V132h80v60A4,4,0,0,1,216,196Z"/></svg>
